assets/img/braze_icons/credit-card-search.svg

<svg fill="none" height="24" viewBox="0 0 24 24" width="24" xmlns="http://www.w3.org/2000/svg"><g fill="#801ed7"><path clip-rule="evenodd" d="m18 14.5c-2.4853 0-4.5 2.0147-4.5 4.5s2.0147 4.5 4.5 4.5c.8805 0 1.702-.2529 2.3957-.69l.8972.8971c.3905.3905 1.0237.3905 1.4142 0s.3905-1.0237 0-1.4142l-.8971-.8972c.4371-.6937.69-1.5152.69-2.3957 0-2.4853-2.0147-4.5-4.5-4.5zm-2.5 4.5c0-1.3807 1.1193-2.5 2.5-2.5s2.5 1.1193 2.5 2.5-1.1193 2.5-2.5 2.5-2.5-1.1193-2.5-2.5z" fill-rule="evenodd"/><path d="m5.16146 3h13.67704c.5272-.00001.982-.00003 1.3565.03057.3954.03231.7886.10362 1.167.29642.5645.28762 1.0234.74656 1.311 1.31104.1928.37838.2641.7716.2964 1.16695.0306.37456.0306.82932.0306 1.35646 0 .46312-.3754.83856-.8386.83856h-20.32281c-.46314 0-.83859-.37545-.83859-.83859-.000015-.5271-.000028-.98189.03057-1.35644.0323-.39534.10362-.78856.29641-1.16694.28762-.56449.74657-1.02343 1.31105-1.31105.37838-.19279.7716-.26411 1.16695-.29641.37455-.0306.82936-.03059 1.35648-.03057z"/><path d="m2.6 10c-.56005 0-.84008 0-1.05399.109-.18816.0959-.34114.2488-.43702.437-.10899.2139-.10899.4939-.10899 1.054v3.2385c-.000015.5271-.000028.982.03057 1.3565.0323.3954.10362.7886.29641 1.167.28762.5645.74657 1.0234 1.31105 1.311.37838.1928.7716.2641 1.16695.2964.37449.0306.82915.0306 1.35617.0306h5.53885c.2791 0 .4187 0 .5188-.0465.0958-.0445.1582-.0997.214-.1894.0583-.0937.0775-.25.1158-.5626.3935-3.2131 3.1319-5.7015 6.4514-5.7015 1.6125 0 3.0879.5872 4.224 1.5594.2873.2459.431.3689.5199.371.0833.002.1473-.0274.1999-.092.0562-.069.0562-.2455.0562-.5985v-2.1399c0-.5601 0-.8401-.109-1.054-.0959-.1882-.2488-.3411-.437-.437-.2139-.109-.4939-.109-1.054-.109z"/></g></svg>

<svg width="24" height="24" viewBox="0 0 24 24" fill="none" xmlns="http://www.w3.org/2000/svg">
<path fill-rule="evenodd" clip-rule="evenodd" d="M18 14.5C15.5147 14.5 13.5 16.5147 13.5 19C13.5 21.4853 15.5147 23.5 18 23.5C18.8805 23.5 19.702 23.2471 20.3957 22.81L21.2929 23.7071C21.6834 24.0976 22.3166 24.0976 22.7071 23.7071C23.0976 23.3166 23.0976 22.6834 22.7071 22.2929L21.81 21.3957C22.2471 20.702 22.5 19.8805 22.5 19C22.5 16.5147 20.4853 14.5 18 14.5ZM15.5 19C15.5 17.6193 16.6193 16.5 18 16.5C19.3807 16.5 20.5 17.6193 20.5 19C20.5 20.3807 19.3807 21.5 18 21.5C16.6193 21.5 15.5 20.3807 15.5 19Z" fill="#801ED7"/>
<path d="M5.16146 3L18.8385 3C19.3657 2.99999 19.8205 2.99997 20.195 3.03057C20.5904 3.06288 20.9836 3.13419 21.362 3.32699C21.9265 3.61461 22.3854 4.07355 22.673 4.63803C22.8658 5.01641 22.9371 5.40963 22.9694 5.80498C23 6.17954 23 6.6343 23 7.16144C23 7.62456 22.6246 8 22.1614 8H1.83859C1.37545 8 1 7.62455 1 7.16141C0.999985 6.63431 0.999972 6.17952 1.03057 5.80497C1.06287 5.40963 1.13419 5.01641 1.32698 4.63803C1.6146 4.07354 2.07355 3.6146 2.63803 3.32698C3.01641 3.13419 3.40963 3.06287 3.80498 3.03057C4.17953 2.99997 4.63434 2.99998 5.16146 3Z" fill="#801ED7"/>
<path d="M2.6 10C2.03995 10 1.75992 10 1.54601 10.109C1.35785 10.2049 1.20487 10.3578 1.10899 10.546C1 10.7599 1 11.0399 1 11.6V14.8385C0.999985 15.3656 0.999972 15.8205 1.03057 16.195C1.06287 16.5904 1.13419 16.9836 1.32698 17.362C1.6146 17.9265 2.07355 18.3854 2.63803 18.673C3.01641 18.8658 3.40963 18.9371 3.80498 18.9694C4.17947 19 4.63413 19 5.16115 19H10.7C10.9791 19 11.1187 19 11.2188 18.9535C11.3146 18.909 11.377 18.8538 11.4328 18.7641C11.4911 18.6704 11.5103 18.5141 11.5486 18.2015C11.9421 14.9884 14.6805 12.5 18 12.5C19.6125 12.5 21.0879 13.0872 22.224 14.0594C22.5113 14.3053 22.655 14.4283 22.7439 14.4304C22.8272 14.4324 22.8912 14.403 22.9438 14.3384C23 14.2694 23 14.0929 23 13.7399V11.6C23 11.0399 23 10.7599 22.891 10.546C22.7951 10.3578 22.6422 10.2049 22.454 10.109C22.2401 10 21.9601 10 21.4 10H2.6Z" fill="#801ED7"/>
</svg>
